X:1
T:K-K-K-Katy
T:Geoffrey O'Hara
T:Norsk sangerforum www.sangerforum.no
Z:Norsk sangerforum
Z:www.sangerforum.no
%%score [ 1 2 3 4 ]
L:1/8
Q:1/4=80
M:4/4
K:C
V:1 treble-8 nm="Tenor"
V:2 treble-8 nm="Vokal"
V:3 bass nm="Baryton"
V:4 bass nm="Bass"
V:1
 B3/2 B/ B3/2 B/ c2 ^c2 | d2 e2 f2 (3f f f |: e2 c4 (3^c c c | =c2 c4 d3/2 c/ | %4
w: This is what they heard in|far off France: K- K- K-|Ka- ty, beau- ti- ful|Ka- ty, You're the|
 B3/2 c/ (3d d c B3/2 B/ B3/2 B/ | (c2 _B2 (3=B) z z (3B c d | e2 c4 (3^c c c | =c2 c4 ^f3/2 f/ | %8
w: on- ly g- g- g- girl that I a-|dore. _ _ m- m- m-|moon shines o- ver the|cow- shed, I'll be|
 =f3/2 f/ f3/2 f/ (3f f B B3/2 B/ |1 c4 z2 (3f f f :|2 (c4 g4) |] %11
w: wait- ing at the k- k- k- kitch- en|door. K- K- K-|door. _|
V:2
 G3/2 G/ G3/2 G/ A2 ^A2 | B2 ^A2 B2 (3G =A B |: c2 G4 (3G F E | D2 A4 B3/2 A/ | %4
w: This is what they heard in|far off France: K- K- K-|Ka- ty, beau- ti- ful|Ka- ty, You're the|
 G3/2 A/ (3B B A G3/2 F/ E3/2 D/ | (G4 (3G) G G (3G A B | c2 G4 (3G F E | D2 A4 B3/2 A/ | %8
w: on- ly g- g- g- girl that I a-|dore. _ When the m- m- m-|moon shines o- ver the|cow- shed, I'll be|
 G3/2 A/ B3/2 A/ (3G G F E3/2 D/ |1 C4 z2 (3G A B :|2 (C4 c4) |] %11
w: wait- ing at the k- k- k- kitch- en|door. K- K- K~-|door. _|
V:3
 F,3/2 F,/ F,3/2 F,/ G,2 G,2 | G,2 G,2 G,2 (3B, C D |: G,2 E,4 (3A, A, G, | ^F,2 F,4 F,3/2 F,/ | %4
w: This is what they heard in|far off France: K- K- K-|Ka- ty, beau- ti- ful|Ka- ty, You're the|
 F,3/2 F,/ (3F, F, F, F,3/2 A,/ G,3/2 F,/ | (E,4 (3F,) G, G, (3G, G, G, | G,2 E,4 (3A, A, G, | %7
w: on- ly g- g- g- girl that I a-|dore. _ When the m- m- m-|moon shines o- ver the|
 ^F,2 F,4 D3/2 C/ | B,3/2 C/ D3/2 C/ (3B, B, A, G,3/2 F,/ |1 E,4 z2 (3B, C D :|2 (E,4 A,4) |] %11
w: cow- shed, I'll be|wait- ing at the k- k- k- kitch- en|door. K- K- K-|door. _|
V:4
 G,,3/2 G,,/ D,3/2 D,/ E,2 _E,2 | D,2 ^C,2 D,2 (3G,, G,, G,, |: C,2 C,4 (3A,, A,, A,, | %3
w: This is what they heard in|far off France: K- K- K-|Ka- ty, beau- ti- ful|
 D,2 D,4 D,3/2 D,/ | D,3/2 D,/ (3G,, G,, G,, D,3/2 G,,/ G,,3/2 G,,/ | %5
w: Ka- ty, You're the|on- ly g- g- g- girl that I a-|
 (C,2 ^C,2 (3D,) z z (3F, E, D, | =C,2 C,4 (3A,, A,, A,, | D,2 D,4 D,3/2 D,/ | %8
w: dore. _ _ m- m- m-|moon shines o- ver the|cow- shed, I'll be|
 D,3/2 D,/ G,,3/2 G,,/ (3D, D, G,, G,,3/2 G,,/ |1 C,3/2 G,,/ (3^F,, G,, A,, G,,2 (3G,, G,, G,, :|2 %10
w: wait- ing at the k- k- k- kitch- en|door. Bo- bo, bo, bo, bo. K- K- K-|
 (C,4 E,4) |] %11
w: door. _|

